svg/furkot/freepik/puzzle.svg

<svg viewBox="0 0 512 512" xmlns="http://www.w3.org/2000/svg"><path d="m418.535 228.735c-8.234 0-16.339 1.223-24.076 3.579v-103.486c0-10.295-8.344-18.641-18.641-18.641h-95.023c3.084-8.731 4.692-18.027 4.692-27.598 0-45.541-37.048-82.589-82.588-82.589s-82.591 37.048-82.591 82.589c0 9.571 1.605 18.869 4.692 27.598h-95.023c-10.297 0-18.641 8.346-18.641 18.641v123.578c0 6.251 3.134 12.087 8.344 15.539 5.212 3.452 11.806 4.066 17.562 1.625 5.575-2.361 11.51-3.556 17.639-3.556 24.984 0 45.309 20.326 45.309 45.307s-20.325 45.307-45.309 45.307c-6.129 0-12.062-1.196-17.639-3.557-5.756-2.44-12.353-1.827-17.562 1.626-5.212 3.452-8.344 9.288-8.344 15.539v123.578c0 10.295 8.344 18.641 18.641 18.641h113.552c.017.002.037 0 .05 0 10.297 0 18.64-8.346 18.64-18.641 0-2.863-.643-5.575-1.799-8.001-1.879-5.05-2.831-10.346-2.831-15.76 0-24.983 20.326-45.307 45.307-45.307s45.307 20.326 45.307 45.307c0 5.796-1.091 11.456-3.243 16.827-2.302 5.744-1.603 12.255 1.864 17.38 3.469 5.125 9.253 8.195 15.439 8.195h113.552c10.298 0 18.641-8.346 18.641-18.641v-103.484c7.735 2.357 15.84 3.579 24.077 3.579 45.538 0 82.588-37.047 82.588-82.588s-37.045-82.586-82.586-82.586z"/></svg>

<svg xmlns="http://www.w3.org/2000/svg" viewBox="0 0 512 512"><path d="M418.535 228.735C410.301 228.735 402.196 229.958 394.459 232.314V128.828C394.459 118.533 386.115 110.187 375.818 110.187H280.795C283.879 101.456 285.487 92.16 285.487 82.589 285.487 37.048 248.439 0 202.899 0S120.308 37.048 120.308 82.589C120.308 92.16 121.913 101.458 125 110.187H29.977C19.68 110.187 11.336 118.533 11.336 128.828V252.406C11.336 258.657 14.47 264.493 19.68 267.945 24.892 271.397 31.486 272.011 37.242 269.57 42.817 267.209 48.752 266.014 54.881 266.014 79.865 266.014 100.19 286.34 100.19 311.321 100.19 336.302 79.865 356.628 54.881 356.628 48.752 356.628 42.819 355.432 37.242 353.071 31.486 350.631 24.889 351.244 19.68 354.697 14.468 358.149 11.336 363.985 11.336 370.236V493.814C11.336 504.109 19.68 512.455 29.977 512.455H143.529C143.546 512.457 143.566 512.455 143.579 512.455 153.876 512.455 162.219 504.109 162.219 493.814 162.219 490.951 161.576 488.239 160.42 485.813 158.541 480.763 157.589 475.467 157.589 470.053 157.589 445.07 177.915 424.746 202.896 424.746S248.203 445.072 248.203 470.053C248.203 475.849 247.112 481.509 244.96 486.88 242.658 492.624 243.357 499.135 246.824 504.26 250.293 509.385 256.077 512.455 262.263 512.455H375.815C386.113 512.455 394.456 504.109 394.456 493.814V390.33C402.191 392.687 410.296 393.909 418.533 393.909 464.071 393.909 501.121 356.862 501.121 311.321S464.076 228.735 418.535 228.735Z"/></svg>
